X:1
T:Blessèd, Bright and Shining Star
T:Blessèd, Bright and Shining Star
T:Silas Jones Vail, 1874
T:Anonymous, circa 1860
T:Public Domain Courtesy of the Cyber Hymnal™
C:Silas Jones Vail, 1874
Z:Public Domain
Z:Courtesy of the Cyber Hymnal™
%%score ( 1 2 ) ( 3 4 )
L:1/8
Q:1/4=80
M:4/4
K:D
V:1 treble 
V:2 treble 
V:3 bass 
V:4 bass 
V:1
 [Fd][FA][Ac][GB] [FA][EG] [DF]2 | [EG][EG][DF][DF] [A,E]D [CA]2 | %2
w: 1.~Bless- èd, bright and shin- ing star,|Guid- ing wise men from a- far;|
w: 2.~Je- sus, may we come to Thee,|Low- ly bend- ing on the knee;|
w: 3.~Sing, ye an- gel choirs a- bove;|Sing the won- ders of His love;|
w: 4.~Je- sus, Sav- ior, Lord of all,|Joy- ful at Thy feet we fall;|
 [DA][DF][Fd][FA] [GB][Gc] [Fd]2 | [Ec][Ec][Ge][Fd] [Ec][EB] [CA]2 || %4
w: Bring- ing joy- ful news to earth,|Tid- ings of a Sav- ior’s birth.|
w: Cost- ly gifts we can- not bring,|But we hail Thee, Sav- ior King!|
w: He who left His throne on high|For a sin- ful world to die.|
w: Hear, oh hear us, while we sing|Glo- ry to our Sav- ior King!|
"^Refrain" [DA]2 [Fd][FA] [Ac] [GB]3 | [FA][GB][FA][DF] [DF] [CE]3 | D2 [DF][FA] [GB] [Bd]2 [GB] | %7
w: |||
w: |||
w: |||
w: |||
 [FA][FA][GB][Gc] [Fd]3 z |] %8
w: |
w: |
w: |
w: |
V:2
 x8 | x5 D x2 | x8 | x8 || x8 | x8 | D2 x6 | x8 |] %8
V:3
 [D,A,][E,D][G,D][G,D] [A,D][A,,A,] [D,A,]2 | [C,A,][C,A,][D,A,][D,A,] [D,A,][B,,F,] [A,,A,]2 | %2
w: ~ ~ ~ ~ ~ ~ ~|~ ~ ~ ~ ~ ~ ~|
 [D,F,][D,A,][D,A,][D,D] [G,D][E,A,] [D,A,]2 | A,A,[C,A,][D,A,] [E,A,][E,^G,] [A,,A,]2 || %4
w: ~ ~ ~ ~ ~ ~ ~|~ ~ ~ ~ ~ ~ ~|
 [D,F,]2 [D,A,][D,D] [G,D] [G,D]3 | [D,D][D,D][D,D][D,A,] [A,,A,] [A,,A,]3 | %6
w: Thrice wel- come Je- sus!|Bless- èd, bless- èd Je- sus!|
 [D,F,]2 [D,A,][D,D] [G,D] [G,D]2 [G,D] | [A,D][A,D]A,A, [D,A,]3 z |] %8
w: Thrice wel- come Je- sus! The|new- born Sav- ior King!|
V:4
 x8 | x8 | x8 | A,A, x6 || x8 | x8 | x8 | x2 A,A, x4 |] %8

